X:165
T:the Happy Singularity
C:Fiona Durance
M:3/4
N:6/5/00
N:For Mary Greenwood
N:"Slowly, with feeling"
O:England
Z:Richard Robinson 
%%Copyright:Fiona Durance
%%TUNEURL: http://www.leeds.ac.uk/music/Info/RRTuneBk/gettune/00000c6d.html
%%ID:00000c6d
K:D ^C
A3E FC | (ED) D3E | FE FG A^G | A^G AB cA |\
A3E FC | (ED) D3E | FE DC CE |1 D6 :|2 D4 - DE |:
FE FG A^G | A^G AB cA | F2 F=G AF | A^G FD E2 |\
A3 E FC | (ED) D3E | FE DC CE |1 D4 - DE :|2 D6 |:
C2 CD EC | F2 FG A2 | d2 de dc | A6 |\
CC CD EC | FF FG A2 | d2 dc AF | E3 F Ac |
d2 dc de | cd cA E2 | F>E FG A^G | A>^G Ac e=g |\
a2 ag fd | ef ^ga ba | =ge fd ec | cd - d4 :|
